X:3
I:abc-include piobaireachd.abh
T:Abbreviations used.
L:1/16
M:
K:HP
V:1 name="written"
!trill!c4 | !uppermordent!c4 | !uppermordent!e4 | !uppermordent!B4 | !ttrip!A2<{d}c2  | {g}!crun!d2>e2    | !taor!A4 {d}c4 |
L:1/16
M:C
V:2 name="played"
{GdG}c4   | c2<{GdG}c2       | {eAfA}e4         | B2<{GdG}B2 | {g}(3A/{d}A/{e}A/{d}c3 | {g}d2>{GdGeAfA}e2 | {g}A4 {GdGe}A2<{d}c2 |